X: 1
T: Maggie Lauder
R: march
Z: John Chambers <jc:trillian.mit.edu>
M: C|
L: 1/4
K: G
D \
| "G"G>A GB | "Em"G>A GB | "Am"A>B c/B/A/G/ | "D7"FA- Ac \
| "G"BG GD  |     G>A GB | "D7"d>e dc       |  "G"B d2 |]
B \
| "C"c>d ce | "G"B>c Bd   | "Am"A>B c/B/A/G/ | "D7"FA- AF \
| "G"GD "(Em)"EB, | "Am"CB, "(D7)"A,c | "G"B<d "D7"A>B | "G"G3 |]
